public/logos/DP.svg

<svg width="340" height="100" viewBox="0 0 340 100" fill="none" xmlns="http://www.w3.org/2000/svg">
<path d="M300.021 59.102C300.021 66.5897 293.947 72.6303 286.465 72.6303C278.982 72.6303 272.908 66.5845 272.908 59.102C272.908 51.6198 278.976 45.574 286.465 45.574C293.951 45.574 300.021 51.6198 300.021 59.102Z" fill="#5ABCED"/>
<path d="M332.558 59.102C332.558 66.5897 326.484 72.6303 319.001 72.6303C311.521 72.6303 305.447 66.5845 305.447 59.102C305.447 51.6198 311.521 45.574 319.001 45.574C326.484 45.574 332.558 51.6198 332.558 59.102Z" fill="#ADDEF6"/>
<path fill-rule="evenodd" clip-rule="evenodd" d="M92.103 43.189C95.6039 39.4741 100.761 39.0215 103.555 39.0215L103.55 39.0162C113.199 39.0162 118.54 46.9037 118.54 54.4807C118.54 63.3417 114.085 72.6341 101.325 72.6235C87.7002 72.6183 83.4611 61.5527 83.4611 51.671C83.4611 40.3632 84.6211 35.8538 88.6706 31.8129C92.877 27.615 98.9656 25.9117 104.2 24.4473C105.179 24.1734 106.128 23.9078 107.03 23.6359C109.824 22.794 112.524 23.0676 113.478 26.1563C114.079 28.0927 113.32 30.4974 109.919 31.4129C106.508 32.3338 102.037 33.5755 100.592 34.0018C94.7182 35.7329 92.103 37.8692 92.103 43.189ZM101.304 64.4572C106.002 64.4572 109.492 61.0318 109.492 55.6067V55.5436C109.492 50.124 106.055 46.7616 101.356 46.7616C96.6586 46.7616 93.1681 50.1818 93.1681 55.6067V55.67C93.1681 61.0949 96.6058 64.4572 101.304 64.4572ZM62.9047 38.5858C52.9974 38.5858 45.6366 45.6787 45.6366 55.6026V55.7237C45.6366 65.6526 52.9394 72.63 62.7939 72.63C72.6487 72.63 80.062 65.5317 80.062 55.6026V55.4869C80.062 45.563 72.7594 38.5858 62.9047 38.5858ZM71.0141 55.6078C71.0141 61.0329 67.5236 64.4583 62.8258 64.4583C58.1277 64.4583 54.69 61.096 54.69 55.6711V55.6078C54.69 50.1829 58.1804 46.7627 62.8783 46.7627C67.5764 46.7627 71.0141 50.1251 71.0141 55.5447V55.6078ZM267.498 59.1017C267.498 66.5894 261.423 72.63 253.937 72.63C246.45 72.63 240.381 66.5842 240.381 59.1017C240.381 51.6195 246.45 45.5737 253.937 45.5737C261.423 45.5737 267.498 51.6195 267.498 59.1017ZM139.003 38.586C133.714 38.586 129.538 40.296 126.596 43.169C123.669 46.0893 121.824 50.2884 121.824 55.2291C121.824 60.1701 123.596 64.6952 126.743 67.8524C129.833 70.9148 134.378 72.6248 140.031 72.6248C143.263 72.6248 146.563 72.267 149.579 71.0568C152.363 69.9887 153.755 68.6363 153.755 66.6842C153.755 64.6216 152.216 62.9114 150.165 62.9114C149.174 62.9114 148.271 63.2775 147.202 63.7112C145.645 64.3422 143.736 65.1162 140.69 65.1162C135.934 65.1162 132.338 62.7694 131.457 58.4283H150.386C153.386 58.4283 155.158 56.5026 155.158 53.1298C155.158 49.9306 154.198 46.0841 150.971 42.8797C148.325 40.2856 144.439 38.5756 139.008 38.5756L139.003 38.586ZM131.378 52.2089C132.037 48.4362 135.174 46.0158 139.219 46.0158C143.606 46.0158 146.005 48.4046 146.331 52.2089H131.378ZM37.0383 39.0221H37.091C39.6641 39.0221 41.7573 41.1321 41.7573 43.6945V67.557C41.7573 70.1248 39.6641 72.2033 37.091 72.2033C34.5179 72.2033 32.4247 70.1248 32.4247 67.557V47.3252H19.3327V67.557C19.3327 70.1248 17.2447 72.2033 14.6663 72.2033C12.088 72.2033 10 70.1248 10 67.557V43.6945C10 41.1269 12.088 39.0221 14.6663 39.0221H14.719H37.0383ZM189.362 39.0221H174.324C171.045 39.0221 169.242 40.7584 168.25 43.7419L161.955 64.3315H160.199C158.027 64.3315 156.255 66.0889 156.255 68.2778C156.255 70.4667 158.027 72.1978 160.199 72.1978H189.362C191.434 72.1978 194.081 70.5879 194.081 67.5044V43.7419C194.081 40.6586 191.434 39.0221 189.362 39.0221ZM185.265 64.3315H171.203L175.98 46.8937H185.265V64.3315ZM204.191 39.7792C207.076 38.6743 210.498 38.5849 213.05 38.5849V38.5797C220.9 38.5797 228.557 42.4786 228.557 52.8286V67.8617C228.557 70.2612 226.653 72.1922 224.328 72.1922C222.767 72.1922 220.958 71.5397 220.173 69.598C218.217 71.1136 215.612 72.6289 211.478 72.6289C204.297 72.6289 198.397 68.109 198.397 61.2213C198.397 51.8446 207.598 50.1609 211.431 50.1609C212.86 50.1609 217.162 50.3134 219.756 52.6498C219.756 48.4562 217.726 46.1357 212.765 46.1357C209.997 46.1357 208.089 46.7047 206.535 47.1684C205.466 47.4872 204.564 47.7563 203.664 47.7563C201.803 47.7563 200.4 46.083 200.4 44.0625C200.4 42.1524 201.634 40.758 204.191 39.7792ZM206.691 61.3106C206.691 64.2995 209.406 66.2516 213.086 66.2516C216.777 66.2516 219.488 64.2995 219.488 61.3106C219.488 58.322 216.777 56.3751 213.086 56.3751C209.791 56.3751 206.691 57.9379 206.691 61.3106Z" fill="#14A0E6"/>
</svg>

<svg xmlns="http://www.w3.org/2000/svg" width="340" height="100" fill="none"><path fill="#5ABCED" d="M300.021 59.102c0 7.488-6.074 13.528-13.556 13.528-7.483 0-13.557-6.045-13.557-13.528 0-7.482 6.068-13.528 13.557-13.528 7.486 0 13.556 6.046 13.556 13.528"/><path fill="#ADDEF6" d="M332.558 59.102c0 7.488-6.074 13.528-13.557 13.528-7.48 0-13.554-6.045-13.554-13.528 0-7.482 6.074-13.528 13.554-13.528 7.483 0 13.557 6.046 13.557 13.528"/><path fill="#14A0E6" fill-rule="evenodd" d="M92.103 43.189c3.5-3.715 8.658-4.167 11.452-4.167l-.005-.006c9.649 0 14.99 7.888 14.99 15.465 0 8.86-4.455 18.153-17.215 18.143C87.7 72.618 83.461 61.553 83.461 51.67c0-11.308 1.16-15.817 5.21-19.858 4.206-4.198 10.295-5.901 15.529-7.366.979-.274 1.928-.54 2.83-.811 2.794-.842 5.494-.568 6.448 2.52.601 1.937-.158 4.341-3.559 5.257-3.411.92-7.882 2.162-9.327 2.589-5.874 1.73-8.489 3.867-8.489 9.187m9.201 21.268c4.698 0 8.188-3.425 8.188-8.85v-.063c0-5.42-3.437-8.782-8.136-8.782-4.697 0-8.188 3.42-8.188 8.845v.063c0 5.425 3.438 8.787 8.136 8.787m-38.4-25.871c-9.907 0-17.267 7.093-17.267 17.017v.12c0 9.93 7.302 16.907 17.157 16.907s17.268-7.098 17.268-17.027v-.116c0-9.924-7.303-16.901-17.157-16.901m8.11 17.022c0 5.425-3.49 8.85-8.188 8.85s-8.136-3.362-8.136-8.787v-.063c0-5.425 3.49-8.845 8.188-8.845s8.136 3.362 8.136 8.782zm196.484 3.494c0 7.487-6.075 13.528-13.561 13.528-7.487 0-13.556-6.046-13.556-13.528s6.069-13.528 13.556-13.528 13.561 6.046 13.561 13.528M139.003 38.586c-5.289 0-9.465 1.71-12.407 4.583-2.927 2.92-4.772 7.12-4.772 12.06s1.772 9.466 4.919 12.623c3.09 3.063 7.635 4.773 13.288 4.773 3.232 0 6.532-.358 9.548-1.568 2.784-1.068 4.176-2.42 4.176-4.373 0-2.062-1.539-3.773-3.59-3.773-.991 0-1.894.367-2.963.8-1.557.631-3.466 1.405-6.512 1.405-4.756 0-8.352-2.347-9.233-6.688h18.929c3 0 4.772-1.925 4.772-5.298 0-3.2-.96-7.046-4.187-10.25-2.646-2.594-6.532-4.304-11.963-4.304zm-7.625 13.623c.659-3.773 3.796-6.193 7.841-6.193 4.387 0 6.786 2.389 7.112 6.193zm-94.34-13.187h.053c2.573 0 4.666 2.11 4.666 4.672v23.863c0 2.568-2.093 4.646-4.666 4.646s-4.666-2.078-4.666-4.646V47.325H19.333v20.232c0 2.568-2.088 4.646-4.667 4.646S10 70.125 10 67.557V43.694c0-2.567 2.088-4.672 4.666-4.672H37.04m152.324 0h-15.038c-3.279 0-5.082 1.736-6.074 4.72l-6.295 20.59h-1.756a3.943 3.943 0 0 0-3.944 3.946c0 2.189 1.772 3.92 3.944 3.92h29.163c2.072 0 4.719-1.61 4.719-4.694V43.742c0-3.083-2.647-4.72-4.719-4.72m-4.097 25.31h-14.062l4.777-17.438h9.285zm18.926-24.553c2.885-1.105 6.307-1.194 8.859-1.194v-.005c7.85 0 15.507 3.899 15.507 14.249v15.033c0 2.4-1.904 4.33-4.229 4.33-1.561 0-3.37-.652-4.155-2.594-1.956 1.516-4.561 3.03-8.695 3.03-7.181 0-13.081-4.519-13.081-11.407 0-9.376 9.201-11.06 13.034-11.06 1.429 0 5.731.152 8.325 2.489 0-4.194-2.03-6.514-6.991-6.514-2.768 0-4.676.569-6.23 1.032-1.069.32-1.971.588-2.871.588-1.861 0-3.264-1.673-3.264-3.693 0-1.91 1.234-3.305 3.791-4.284m2.5 21.532c0 2.988 2.715 4.94 6.395 4.94 3.691 0 6.402-1.952 6.402-4.94s-2.711-4.936-6.402-4.936c-3.295 0-6.395 1.563-6.395 4.936" clip-rule="evenodd"/></svg>
